Simply-White-Circles/scalable/apps/xfce4-logo.svg

<svg xmlns="http://www.w3.org/2000/svg" width="48" height="48" viewBox="0 0 12.7 12.7"><path d="M6.34.07a6.29 6.29 0 0 0-6.29 6.3 6.29 6.29 0 0 0 6.3 6.28 6.29 6.29 0 0 0 6.28-6.29A6.29 6.29 0 0 0 6.34.07zm-.01.94a5.4 5.4 0 0 1 5.4 5.4 5.4 5.4 0 0 1-5.4 5.41 5.4 5.4 0 0 1-5.41-5.4A5.4 5.4 0 0 1 6.32 1zm2.22 2.28c-.36.05-.53 2.27-.37 2.57a4.4 4.4 0 0 0 .8-1.33 7.25 7.25 0 0 0-.16 1.57c.1.14 1.57-2.27 1.14-2.45-.06-.02-.47.74-.81 1.5 0-.32.27-1.32.16-1.62-.22-.07-.63.88-.8 1.32-.05-.22.23-1.45.04-1.56zm-3.23.23c-.11 0-.2.04-.23.04-.69.1-.48 1.07-.19 1.98.03.23-.22.14-.37-.1-.54-1.31-.77-1.27-.92-1.3-.14-.04-.64.22-.63.75 0 .15.2.87.2 1.09-.63 1.07-.89 2.14-.1 3.23.79 1.05 3.14 1.09 3.56.84.16-.11 2.56-1.3 3.12-1.75.82-.69-.03-1.55-.22-1.67-1.71-1.11-3.46-.88-3.48-1.06-.02-.2 0-.77-.04-.97-.11-.95-.46-1.08-.7-1.08zm2.31 3.5a4.5 4.5 0 0 1-.92 1.27 6.5 6.5 0 0 1 1.4-.78c.17.04-1.44 2.13-1.76 1.8-.05-.04.35-.62 1.01-1.13-.3.13-1.18.61-1.5.63-.14-.18.78-.76.98-1.1-.23.04-1.43.6-1.6.47-.1-.35 2.01-.96 2.4-1.16z" stroke-width="3.78" fill="#e6e6e6"/></svg>

<?xml version="1.0" encoding="UTF-8" standalone="no"?>
<svg
   xmlns:dc="http://purl.org/dc/elements/1.1/"
   xmlns:cc="http://creativecommons.org/ns#"
   xmlns:rdf="http://www.w3.org/1999/02/22-rdf-syntax-ns#"
   xmlns:svg="http://www.w3.org/2000/svg"
   xmlns="http://www.w3.org/2000/svg"
   xmlns:sodipodi="http://sodipodi.sourceforge.net/DTD/sodipodi-0.dtd"
   xmlns:inkscape="http://www.inkscape.org/namespaces/inkscape"
   width="48"
   height="48"
   viewBox="0 0 12.7 12.7"
   version="1.1"
   id="svg4"
   sodipodi:docname="xfce4-logo.svg"
   inkscape:version="0.92.4 (5da689c313, 2019-01-14)">
  <metadata
     id="metadata10">
    <rdf:RDF>
      <cc:Work
         rdf:about="">
        <dc:format>image/svg+xml</dc:format>
        <dc:type
           rdf:resource="http://purl.org/dc/dcmitype/StillImage" />
        <dc:title></dc:title>
      </cc:Work>
    </rdf:RDF>
  </metadata>
  <defs
     id="defs8" />
  <sodipodi:namedview
     pagecolor="#ffffff"
     bordercolor="#666666"
     borderopacity="1"
     objecttolerance="10"
     gridtolerance="10"
     guidetolerance="10"
     inkscape:pageopacity="0"
     inkscape:pageshadow="2"
     inkscape:window-width="1087"
     inkscape:window-height="480"
     id="namedview6"
     showgrid="false"
     inkscape:zoom="4.9166667"
     inkscape:cx="2.1355932"
     inkscape:cy="24"
     inkscape:window-x="0"
     inkscape:window-y="25"
     inkscape:window-maximized="0"
     inkscape:current-layer="svg4" />
  <path
     d="M 6.34,0.07 A 6.29,6.29 0 0 0 0.05,6.37 6.29,6.29 0 0 0 6.35,12.65 6.29,6.29 0 0 0 12.63,6.36 6.29,6.29 0 0 0 6.34,0.07 Z M 6.33,1.01 a 5.4,5.4 0 0 1 5.4,5.4 5.4,5.4 0 0 1 -5.4,5.41 A 5.4,5.4 0 0 1 0.92,6.42 5.4,5.4 0 0 1 6.32,1 Z M 8.55,3.29 C 8.19,3.34 8.02,5.56 8.18,5.86 A 4.4,4.4 0 0 0 8.98,4.53 C 8.89,4.8 8.77,6.09 8.82,6.1 8.92,6.24 10.39,3.83 9.96,3.65 9.9,3.63 9.49,4.39 9.15,5.15 9.15,4.83 9.42,3.83 9.31,3.53 9.09,3.46 8.68,4.41 8.51,4.85 8.46,4.63 8.74,3.4 8.55,3.29 Z M 5.32,3.52 C 5.21,3.52 5.12,3.56 5.09,3.56 4.4,3.66 4.61,4.63 4.9,5.54 4.93,5.77 4.68,5.68 4.53,5.44 3.99,4.13 3.76,4.17 3.61,4.14 3.47,4.1 2.97,4.36 2.98,4.89 c 0,0.15 0.2,0.87 0.2,1.09 C 2.55,7.05 2.29,8.12 3.08,9.21 3.87,10.26 6.22,10.3 6.64,10.05 6.8,9.94 9.2,8.75 9.76,8.3 10.58,7.61 9.73,6.75 9.54,6.63 7.83,5.52 6.08,5.75 6.06,5.57 6.04,5.37 6.06,4.8 6.02,4.6 5.91,3.65 5.56,3.52 5.32,3.52 Z m 2.31,3.5 A 4.5,4.5 0 0 1 6.71,8.29 6.5,6.5 0 0 1 8.11,7.51 C 8.28,7.55 6.67,9.64 6.35,9.31 6.3,9.27 6.7,8.69 7.36,8.18 7.06,8.31 6.18,8.79 5.86,8.81 5.72,8.63 6.64,8.05 6.84,7.71 6.61,7.75 5.41,8.31 5.24,8.18 5.14,7.83 7.25,7.22 7.64,7.02 Z"
     id="path2"
     inkscape:connector-curvature="0"
     style="fill:#e6e6e6;stroke-width:3.77999997" />
</svg>
